X:1
T:Title
%%score { 1 | ( 2 3 ) }
L:1/8
M:3/4
K:Eb
V:1 treble nm="Grand Piano"
V:2 bass 
V:3 bass 
V:1
 z2 z2[Q:1/4=94] B>B | B3 E DE | [EG]2 [DF]2 [DF][EG] | [FA]3 [=EG] [FA][DAc] |[M:2/4] [EGB]4 | %5
[M:1/4] [B,GB][B,GB] |[M:3/4] [Ge]3 [Ge] dG | d2 c2 [Ec][Ec] | [Ec]3 [EB] [DB][B,DA] | [B,EG]4 z2 | %10
 [=B,DG]>[B,DG] [B,DG][B,DF] [CE][CEA] | [B,EG]4 z2 | [DB]>[DB] [DB][EB] [FB][EB] | [DB]4 z2 | %14
 [Ee]>[Fe] [Ge][Ee] [Ee][Ee] | [_Ge]4 =A2 | %16
 [EB]>[EB] [DB][EB] [FB]>[EB][Q:1/4=93][Q:1/4=91][Q:1/4=90][Q:1/4=88][Q:1/4=87][Q:1/4=86][Q:1/4=84][Q:1/4=83][Q:1/4=82][Q:1/4=80][Q:1/4=79][Q:1/4=77][Q:1/4=76][Q:1/4=75][Q:1/4=73][Q:1/4=72] | %17
[M:2/4] [EB]4 |] %18
V:2
 z2 z2 [E,G,E]>[E,G,E] | [E,G,E]3 [G,B,] [F,A,B,][E,G,B,] | [B,,B,]2 [B,,B,]2 [B,,B,][B,,B,] | %3
 [B,,B,]3 [B,,B,] [B,,B,]B,, |[M:2/4] E,4 |[M:1/4] E,E, | %6
[M:3/4] [C,C]3 [C,C][K:treble] [G,=B,F][G,B,F] | [A,=B,F]2[K:bass] [A,CE]2 [A,,A,][A,,A,] | %8
 [B,,G,]3 [B,,G,] [B,,F,]B,, | E,4 z2 | G,,>G,, G,,G,, A,,A,, | [E,,E,]4 z2 | %12
 [B,,F,]>[B,,F,] [B,,F,][B,,G,] [B,,A,][B,,G,] | [B,,F,]4 z2 | %14
 [E,G,]>[E,A,] [E,B,][_D,G,] [C,A,][C,A,] | =A,4 [_G,E]2 | %16
 [B,,G,]>[B,,G,] [B,,F,][B,,G,] [B,,A,]>[B,,G,] |[M:2/4] [E,G,]4 |] %18
V:3
 x6 | x6 | x6 | x6 |[M:2/4] x4 |[M:1/4] x2 |[M:3/4] x4[K:treble] x2 | x2[K:bass] x4 | x6 | x6 | %10
 x6 | x6 | x6 | x6 | x6 | =B,,6 | x6 |[M:2/4] x4 |] %18

